assets/Girl/Light/Flat/girl_flat_light.svg

<svg width="32" height="32" viewBox="0 0 32 32" fill="none" xmlns="http://www.w3.org/2000/svg">
<path d="M25.5 14.5C25.2569 14.5 24.7922 14.5773 24.7922 14.5773L6.05357 14.5304C6.05357 14.5304 4.54988 15.0394 4.04615 15.619C4.03463 15.4567 4.02881 15.2937 4.02881 15.13V11.06C4.02881 7.52282 6.6282 4.59436 10.0215 4.0801C10.0787 2.92121 11.0353 2 12.1988 2H18.0088C23.5288 2 28.0088 6.48 28.0088 12V15.13C28.0088 15.3073 28.0021 15.484 27.9887 15.6597C27.3925 14.9506 26.4989 14.5 25.5 14.5Z" fill="#212121"/>
<path d="M8.43877 21.22L2.43877 25.25C1.88877 25.62 1.84877 26.42 2.35877 26.85L5.54877 29.66C6.26877 30.3 7.39877 30 7.72877 29.1L10.0488 22.61L8.43877 21.22Z" fill="#212121"/>
<path d="M23.6288 21.22L29.6288 25.25C30.1788 25.62 30.2188 26.42 29.7088 26.85L26.5188 29.66C25.7988 30.3 24.6688 30 24.3388 29.1L22.0188 22.61L23.6288 21.22Z" fill="#212121"/>
<path d="M9.75 17.75C9.75 19.5449 8.29493 21 6.5 21C4.70507 21 3.25 19.5449 3.25 17.75C3.25 15.9551 4.70507 14.5 6.5 14.5C8.29493 14.5 9.75 15.9551 9.75 17.75Z" fill="#F4C6AD"/>
<path d="M28.75 17.75C28.75 19.5449 27.2949 21 25.5 21C23.7051 21 22.25 19.5449 22.25 17.75C22.25 15.9551 23.7051 14.5 25.5 14.5C27.2949 14.5 28.75 15.9551 28.75 17.75Z" fill="#F4C6AD"/>
<path d="M18.8288 13C15.1999 13 12.0783 10.8032 10.7297 7.66284C10.1506 9.79299 8.89226 11.7015 7.10881 13.08C6.62189 13.4587 6.25783 13.9639 6.05357 14.5304C5.98296 14.5401 5.91308 14.5521 5.84399 14.5662L6.03566 20.2149C6.2748 26.074 10.6591 30 16 30C21.3309 30 25.7252 26.074 25.9643 20.2149L26.156 14.5662C25.9441 14.5228 25.7247 14.5 25.5 14.5C25.2569 14.5 25.0201 14.5267 24.7922 14.5773C23.9031 13.6072 22.6255 13 21.1888 13H18.8288Z" fill="#FFD7C2"/>
<path d="M16.0136 23.3729C14.9052 23.3729 13.8768 23.1019 12.9981 22.6401C12.6985 22.4795 12.379 22.8208 12.5687 23.1119C13.2976 24.2462 14.5658 24.999 16.0136 24.999C17.4615 24.999 18.7296 24.2462 19.4585 23.1119C19.6382 22.8309 19.3287 22.4896 19.0291 22.6401C18.1504 23.1119 17.122 23.3729 16.0136 23.3729Z" fill="#990839"/>
<path d="M16.0034 22C16.6734 22 17.2734 21.6548 17.6234 21.1269C17.9434 20.6497 17.6034 20 17.0334 20H14.9634C14.3934 20 14.0534 20.6497 14.3734 21.1269C14.7334 21.6548 15.3334 22 16.0034 22Z" fill="#E5AF93"/>
<path d="M8.21878 18.47C8.54878 17.13 9.76878 16.13 11.2188 16.13C12.7188 16.13 13.9788 17.2 14.2688 18.62C14.3288 18.93 14.0788 19.22 13.7588 19.22H8.81878C8.41878 19.22 8.11878 18.85 8.21878 18.47Z" fill="white"/>
<path d="M23.8188 18.47C23.4888 17.13 22.2688 16.13 20.8188 16.13C19.3188 16.13 18.0688 17.2 17.7688 18.62C17.7088 18.93 17.9588 19.22 18.2788 19.22H23.2188C23.6188 19.22 23.9188 18.85 23.8188 18.47Z" fill="white"/>
<path d="M9.69879 18.7C9.69879 17.61 10.5888 16.72 11.6788 16.72C12.7688 16.72 13.6588 17.61 13.6488 18.7C13.6488 18.88 13.6288 19.05 13.5788 19.22H9.76879C9.72879 19.06 9.69879 18.88 9.69879 18.7Z" fill="#7D4533"/>
<path d="M22.3488 18.7C22.3488 17.61 21.4588 16.72 20.3688 16.72C19.2688 16.72 18.3888 17.61 18.3988 18.7C18.3988 18.88 18.4188 19.05 18.4688 19.22H22.2788C22.3188 19.06 22.3488 18.88 22.3488 18.7Z" fill="#7D4533"/>
<path d="M11.6788 17.57C12.2988 17.57 12.8088 18.08 12.8088 18.7C12.8088 18.89 12.7588 19.07 12.6788 19.22H10.6788C10.5988 19.07 10.5488 18.89 10.5488 18.7C10.5488 18.08 11.0588 17.57 11.6788 17.57Z" fill="black"/>
<path d="M20.3688 17.57C19.7488 17.57 19.2388 18.08 19.2388 18.7C19.2388 18.89 19.2788 19.07 19.3688 19.22H21.3688C21.4488 19.07 21.4988 18.89 21.4988 18.7C21.4988 18.08 20.9888 17.57 20.3688 17.57Z" fill="black"/>
<path d="M11.3488 17.92C11.3488 18.1133 11.1921 18.27 10.9988 18.27C10.8055 18.27 10.6488 18.1133 10.6488 17.92C10.6488 17.7267 10.8055 17.57 10.9988 17.57C11.1921 17.57 11.3488 17.7267 11.3488 17.92Z" fill="white"/>
<path d="M20.0988 17.92C20.0988 18.1133 19.9421 18.27 19.7488 18.27C19.5555 18.27 19.3988 18.1133 19.3988 17.92C19.3988 17.7267 19.5555 17.57 19.7488 17.57C19.9421 17.57 20.0988 17.7267 20.0988 17.92Z" fill="white"/>
<path d="M9.90645 15.171C10.4277 14.9855 11.1745 14.8446 12.1618 14.9378C12.4367 14.9637 12.6806 14.7619 12.7066 14.487C12.7325 14.212 12.5307 13.9681 12.2557 13.9422C11.1231 13.8353 10.2298 13.9945 9.57112 14.2289C9.31097 14.3215 9.17514 14.6075 9.26773 14.8677C9.36033 15.1278 9.64629 15.2636 9.90645 15.171Z" fill="#212121"/>
<path d="M22.4664 14.2289C21.8077 13.9945 20.9144 13.8353 19.7818 13.9422C19.5069 13.9681 19.305 14.212 19.331 14.487C19.3569 14.7619 19.6008 14.9637 19.8757 14.9378C20.8631 14.8446 21.6098 14.9855 22.1311 15.171C22.3912 15.2636 22.6772 15.1278 22.7698 14.8677C22.8624 14.6075 22.7266 14.3215 22.4664 14.2289Z" fill="#212121"/>
</svg>

<svg xmlns="http://www.w3.org/2000/svg" width="32" height="32" fill="none"><path fill="#212121" d="M25.5 14.5c-.243 0-.708.077-.708.077L6.054 14.53s-1.504.51-2.008 1.089a6.904 6.904 0 0 1-.017-.489v-4.07a7.06 7.06 0 0 1 5.992-6.98A2.187 2.187 0 0 1 12.2 2h5.81c5.52 0 10 4.48 10 10v3.13c0 .177-.007.354-.02.53A3.243 3.243 0 0 0 25.5 14.5ZM8.439 21.22l-6 4.03c-.55.37-.59 1.17-.08 1.6l3.19 2.81c.72.64 1.85.34 2.18-.56l2.32-6.49-1.61-1.39ZM23.629 21.22l6 4.03c.55.37.59 1.17.08 1.6l-3.19 2.81c-.72.64-1.85.34-2.18-.56l-2.32-6.49 1.61-1.39Z"/><path fill="#F4C6AD" d="M9.75 17.75a3.25 3.25 0 1 1-6.5 0 3.25 3.25 0 0 1 6.5 0ZM28.75 17.75a3.25 3.25 0 1 1-6.5 0 3.25 3.25 0 0 1 6.5 0Z"/><path fill="#FFD7C2" d="M18.829 13a8.815 8.815 0 0 1-8.1-5.337 10.24 10.24 0 0 1-3.62 5.417 3.226 3.226 0 0 0-1.055 1.45c-.071.01-.14.022-.21.036l.192 5.649C6.275 26.074 10.659 30 16 30c5.33 0 9.725-3.926 9.964-9.785l.192-5.649a3.267 3.267 0 0 0-1.364.011A4.86 4.86 0 0 0 21.19 13h-2.36Z"/><path fill="#990839" d="M16.014 23.373a6.472 6.472 0 0 1-3.016-.733c-.3-.16-.619.18-.43.472a4.088 4.088 0 0 0 6.89 0c.18-.281-.13-.622-.429-.472a6.353 6.353 0 0 1-3.015.733Z"/><path fill="#E5AF93" d="M16.003 22c.67 0 1.27-.345 1.62-.873.32-.477-.02-1.127-.59-1.127h-2.07c-.57 0-.91.65-.59 1.127.36.528.96.873 1.63.873Z"/><path fill="#fff" d="M8.219 18.47a3.091 3.091 0 0 1 3-2.34c1.5 0 2.76 1.07 3.05 2.49.06.31-.19.6-.51.6h-4.94c-.4 0-.7-.37-.6-.75ZM23.819 18.47a3.091 3.091 0 0 0-3-2.34c-1.5 0-2.75 1.07-3.05 2.49-.06.31.19.6.51.6h4.94c.4 0 .7-.37.6-.75Z"/><path fill="#7D4533" d="M9.699 18.7c0-1.09.89-1.98 1.98-1.98 1.09 0 1.98.89 1.97 1.98 0 .18-.02.35-.07.52h-3.81c-.04-.16-.07-.34-.07-.52ZM22.349 18.7c0-1.09-.89-1.98-1.98-1.98-1.1 0-1.98.89-1.97 1.98 0 .18.02.35.07.52h3.81c.04-.16.07-.34.07-.52Z"/><path fill="#000" d="M11.679 17.57c.62 0 1.13.51 1.13 1.13 0 .19-.05.37-.13.52h-2c-.08-.15-.13-.33-.13-.52 0-.62.51-1.13 1.13-1.13ZM20.369 17.57c-.62 0-1.13.51-1.13 1.13 0 .19.04.37.13.52h2c.08-.15.13-.33.13-.52 0-.62-.51-1.13-1.13-1.13Z"/><path fill="#fff" d="M11.349 17.92a.35.35 0 1 1-.7 0 .35.35 0 0 1 .7 0ZM20.099 17.92a.35.35 0 1 1-.7 0 .35.35 0 0 1 .7 0Z"/><path fill="#212121" d="M9.906 15.171c.522-.185 1.268-.326 2.256-.233a.5.5 0 0 0 .094-.996c-1.133-.107-2.026.053-2.685.287a.5.5 0 0 0 .335.942ZM22.466 14.229c-.658-.234-1.552-.394-2.684-.287a.5.5 0 1 0 .094.996c.987-.093 1.734.047 2.255.233a.5.5 0 1 0 .335-.942Z"/></svg>
